packages/axiom-materials/src/icon_svgs/reports.svg

<svg height="16" viewBox="0 0 16 16" width="16" xmlns="http://www.w3.org/2000/svg"><path d="m3.5 2h9c.7980092 0 1.5.70498368 1.5 1.5v9c0 .8-.7 1.5-1.5 1.5h-9c-.8 0-1.5-.7-1.5-1.5v-9c0-.80282228.69706492-1.5 1.5-1.5zm.5 6v4h2v-4zm3-4v8h2v-8zm3 2.5v5.5h2v-5.5z" fill-rule="evenodd"/></svg>

<svg xmlns="http://www.w3.org/2000/svg" width="16" height="16" viewBox="0 0 16 16">
  <path fill-rule="evenodd" d="M3.5,2 L12.5,2 C13.2980092,2 14,2.70498368 14,3.5 L14,12.5 C14,13.3 13.3,14 12.5,14 L3.5,14 C2.7,14 2,13.3 2,12.5 L2,3.5 C2,2.69717772 2.69706492,2 3.5,2 Z M4,8 L4,12 L6,12 L6,8 L4,8 Z M7,4 L7,12 L9,12 L9,4 L7,4 Z M10,6.5 L10,12 L12,12 L12,6.5 L10,6.5 Z"/>
</svg>
